packages/core/src/svgs/tokens/mono/SFM.svg

<svg width="24" height="24" viewBox="0 0 24 24" fill="none" xmlns="http://www.w3.org/2000/svg">
<path fill-rule="evenodd" clip-rule="evenodd" d="M15.665 4.0708C17.1874 4.75722 18.4825 5.86362 19.3983 7.26016C19.0232 7.61662 18.8106 8.03561 18.773 8.51714C18.7491 8.77065 18.7792 9.02635 18.8612 9.26732C18.9433 9.50838 19.0757 9.7293 19.2493 9.91549C19.4231 10.1015 19.6344 10.2488 19.8692 10.3473C20.104 10.4459 20.357 10.4935 20.6116 10.4871C20.6554 10.4871 20.6804 10.5057 20.6866 10.5495L20.8117 11.6439C20.8429 12.7008 20.6866 13.7202 20.3427 14.7082C19.3796 17.316 17.2784 19.1483 14.6831 20.0676C12.0593 21.0113 9.19059 21.0222 6.55964 20.0988C6.14689 19.9488 5.77792 19.78 5.45899 19.5924C5.25262 19.4673 5.23387 19.4985 5.39645 19.6674C6.70971 21.0432 8.50451 21.7311 10.3868 21.9125L11.1999 21.9937H12.6194C14.5014 21.8608 16.3104 21.2118 17.8475 20.1177C19.2247 19.125 20.3265 17.7979 21.0491 16.2616C21.7717 14.7254 22.0912 13.0304 21.9776 11.3364C21.864 9.64248 21.3209 8.00544 20.3997 6.5794C19.4784 5.15339 18.2092 3.9854 16.7118 3.18552C15.2142 2.38564 13.5378 1.98019 11.8402 2.00739C10.1427 2.03459 8.4801 2.49354 7.00899 3.34099C5.5379 4.18844 4.3068 5.39649 3.43169 6.85129C2.55657 8.30612 2.06627 9.95971 2.00698 11.6564C1.95695 12.9448 2.17582 14.1767 2.66361 15.3461C3.14515 16.503 3.8518 17.4285 4.78985 18.1289C5.85596 18.9092 7.17003 19.2738 8.48576 19.1546C10.0179 19.0608 11.4188 18.5355 12.8508 17.8476C13.6013 17.4911 14.2766 17.0159 14.877 16.428C16.1777 15.1773 16.9594 13.6326 17.2221 11.7752C17.3034 11.2438 17.3285 10.6747 17.3034 10.0743C17.3034 10.043 17.2847 10.0118 17.2533 9.99298L12.1441 6.50347C12.1129 6.4847 12.0817 6.4847 12.0566 6.50347L6.93485 10.0055C6.92116 10.0141 6.90994 10.0261 6.90227 10.0404C6.89459 10.0547 6.89074 10.0706 6.89108 10.0868V10.9311C6.92551 12.0558 7.19672 13.1607 7.687 14.1737C8.17729 15.1865 8.87564 16.0846 9.73647 16.8094C9.75252 16.8234 9.77193 16.833 9.79265 16.8374C9.81351 16.8418 9.83496 16.8408 9.85525 16.8345L11.1748 16.3217C11.1999 16.3155 11.2062 16.3029 11.2123 16.2966V16.2841L11.1873 16.2591C10.2752 15.6517 9.52649 14.829 9.00737 13.8639C8.48825 12.8986 8.21461 11.8206 8.2106 10.7246L12.0316 8.1169C12.0503 8.10221 12.0734 8.09421 12.0973 8.09421C12.1211 8.09421 12.1441 8.10221 12.1629 8.1169L15.9463 10.6997C15.9777 10.7246 15.9901 10.7497 15.9838 10.7872L15.8588 11.9629C15.6279 13.2777 14.9942 14.4884 14.0453 15.4274C13.6951 15.7713 13.2198 16.109 12.6194 16.428C11.1373 17.3223 9.39254 17.9414 7.64776 17.8351C7.00364 17.7976 6.39704 17.5974 5.80919 17.2285C5.0358 16.7302 4.42158 16.0204 4.03941 15.1836L3.62668 14.1391C3.61992 14.1204 3.61931 14.1 3.62493 14.0809C3.63056 14.0618 3.64212 14.045 3.65795 14.0329C4.28955 13.4825 4.14572 12.532 3.36402 12.2006C3.35063 12.1959 3.33882 12.1876 3.32997 12.1765C3.32111 12.1654 3.31558 12.1521 3.31399 12.138V12.063C3.31399 10.8435 3.56414 9.674 4.03941 8.56092C4.05143 8.5328 4.07383 8.5104 4.10195 8.49838C4.12322 8.48809 4.14708 8.48438 4.17047 8.48772C4.19386 8.49107 4.21573 8.50131 4.23327 8.51714C4.2509 8.53586 4.27219 8.55076 4.29581 8.56092H4.31458C5.40271 8.81733 6.31573 8.52965 7.04741 7.68541C7.66027 6.84743 7.72907 5.88435 7.24128 4.78372C7.23849 4.77785 7.23706 4.77145 7.23706 4.76495C7.23706 4.75847 7.23849 4.75205 7.24128 4.7462H7.24754V4.73994L7.26004 4.73368C8.20395 4.10769 9.26194 3.67392 10.3737 3.45716C11.4853 3.24041 12.6289 3.24492 13.7389 3.47045C14.4142 3.60178 15.0521 3.80189 15.6587 4.07705L15.665 4.0708ZM6.59715 7.56659C7.26629 6.77863 7.36635 5.94065 6.89733 5.04637C6.89249 5.03884 6.8861 5.03245 6.87857 5.02761L6.87231 5.02136H6.8473L6.82853 5.03387C5.89635 5.73581 5.11033 6.61317 4.51469 7.61662L4.29581 7.99184C4.2885 8.00384 4.28399 8.01734 4.28261 8.03132C4.28122 8.04532 4.283 8.05943 4.2878 8.07263C4.2926 8.08585 4.30031 8.0978 4.31036 8.10764C4.3204 8.11746 4.33253 8.1249 4.34584 8.12942C5.22135 8.36705 5.97179 8.17944 6.59715 7.56659ZM19.5547 7.69167C18.723 8.64847 19.317 9.96175 20.549 10.0868C20.5802 10.0868 20.5928 10.0743 20.5865 10.043C20.3821 9.21829 20.0665 8.42517 19.6486 7.68541C19.6343 7.67509 19.6166 7.67064 19.5991 7.67298C19.5817 7.6753 19.5658 7.68423 19.5547 7.69791V7.69167ZM3.35152 12.7196L3.47033 13.5451L3.47155 13.5522L3.47658 13.5576H3.48909C3.53913 13.5451 3.58915 13.495 3.61417 13.4137C3.63918 13.3325 3.64543 13.2261 3.63292 13.1136L3.62668 13.0885C3.61442 13.0059 3.58909 12.9256 3.55163 12.8509C3.54406 12.8359 3.53571 12.8213 3.52662 12.8072C3.50555 12.7746 3.47784 12.7469 3.44531 12.7259C3.42117 12.7104 3.39246 12.7038 3.36402 12.7071H3.35152V12.7196Z" fill="white"/>
<path fill-rule="evenodd" clip-rule="evenodd" d="M19.0293 13.689C19.238 13.7568 19.4167 13.8947 19.5353 14.0794C19.6538 14.264 19.7049 14.4841 19.6797 14.7021C19.6567 14.8924 19.5762 15.071 19.4488 15.2141C19.3213 15.3572 19.153 15.4579 18.9667 15.5024C18.8304 15.5357 18.6883 15.5386 18.5507 15.5108C18.4131 15.483 18.2834 15.4252 18.1706 15.3418C18.0578 15.2582 17.9647 15.1509 17.8981 15.0273C17.8315 14.9037 17.7928 14.7672 17.7848 14.6269C17.776 14.4438 17.8211 14.2621 17.9143 14.1042C18.0077 13.9464 18.1453 13.8194 18.3101 13.739C18.5352 13.6264 18.7916 13.6138 19.0293 13.689ZM18.5915 15.0961C18.2351 14.9585 18.1226 14.7208 18.2351 14.3643C18.4728 13.9828 18.973 13.9265 19.2107 14.3268C19.3295 14.5769 19.2731 14.802 19.0605 14.9834C18.9105 15.121 18.7478 15.1585 18.5853 15.0961H18.5915Z" fill="white"/>
<path d="M12.0749 15.265L12.2813 14.2018C12.2813 14.1935 12.2846 14.1856 12.2905 14.1798C12.2963 14.1738 12.3042 14.1706 12.3125 14.1706C12.3189 14.1708 12.3252 14.1727 12.3306 14.1759C12.3361 14.1792 12.3407 14.1838 12.3439 14.1893L12.4939 14.3958C12.4978 14.4018 12.5036 14.4064 12.5104 14.4086C12.5172 14.4109 12.5247 14.4108 12.5314 14.4082H12.5376C12.5427 14.4061 12.5471 14.4026 12.5503 14.3983C12.5537 14.3939 12.5557 14.3886 12.5565 14.3832L12.669 13.7953V13.7704C12.6663 13.7644 12.662 13.7593 12.6564 13.7559C12.6507 13.7526 12.6443 13.7511 12.6377 13.7515H11.4808V13.7578H11.4684L11.4621 13.7704C11.4571 13.7777 11.4548 13.7866 11.4558 13.7953L11.5683 14.3707C11.5702 14.3767 11.5734 14.3819 11.5778 14.3863C11.582 14.3907 11.5874 14.3939 11.5934 14.3958C11.6001 14.3983 11.6076 14.3984 11.6144 14.3962C11.6211 14.3939 11.627 14.3894 11.6309 14.3832L11.7748 14.2081L11.7872 14.1956C11.794 14.194 11.8012 14.1943 11.8078 14.1964C11.8143 14.1988 11.8203 14.2027 11.8247 14.2081L11.8372 14.2268L11.9998 15.265L12.0123 15.2837C12.017 15.2888 12.0233 15.2921 12.03 15.2932C12.0368 15.2943 12.0439 15.2932 12.0498 15.29H12.0561L12.0687 15.265H12.0749Z" fill="white"/>
<path d="M11.6374 12.4445V10.7999C11.6374 10.3621 12.0251 9.81174 12.2627 9.46781C12.2668 9.4627 12.272 9.45847 12.278 9.45555C12.284 9.45263 12.2906 9.45117 12.2971 9.45117C12.3037 9.45117 12.3103 9.45263 12.3162 9.45555C12.3222 9.45847 12.3275 9.4627 12.3316 9.46781C12.6129 9.86806 12.957 10.3559 12.957 10.8437C12.9444 11.4065 12.9382 11.9443 12.9444 12.4571C12.9444 12.4946 12.9694 12.5195 13.0069 12.5321C13.3971 12.6714 13.7368 12.924 13.9825 13.2576C13.9825 13.2691 13.9778 13.2804 13.9696 13.2885C13.9615 13.2967 13.9504 13.3014 13.9387 13.3014H10.6493C10.6427 13.3001 10.6363 13.2973 10.6309 13.2932C10.6255 13.2891 10.6211 13.2839 10.618 13.2779C10.615 13.2718 10.6135 13.265 10.6135 13.2583C10.6135 13.2515 10.615 13.2449 10.618 13.2388C10.8807 12.9074 11.206 12.676 11.5811 12.5384C11.6249 12.5195 11.6437 12.4946 11.6437 12.4508L11.6374 12.4445Z" fill="white"/>
</svg>

<svg xmlns="http://www.w3.org/2000/svg" width="24" height="24" fill="none" viewBox="0 0 24 24">
    <path fill="#fff" fill-rule="evenodd" d="M15.665 4.07a8.8 8.8 0 0 1 3.733 3.19c-.375.357-.587.776-.625 1.257a1.803 1.803 0 0 0 1.839 1.97q.064-.001.075.063l.125 1.094a8.5 8.5 0 0 1-.47 3.064c-.962 2.608-3.064 4.44-5.659 5.36a12.13 12.13 0 0 1-8.123.03 6.7 6.7 0 0 1-1.101-.506c-.206-.125-.225-.093-.063.075 1.314 1.376 3.109 2.064 4.99 2.246l.814.08h1.42a10.26 10.26 0 0 0 5.228-1.875 10 10 0 1 0-15.841-8.462 8.6 8.6 0 0 0 .657 3.69q.72 1.733 2.126 2.783a5.43 5.43 0 0 0 3.696 1.026c1.532-.094 2.933-.62 4.365-1.307a7.5 7.5 0 0 0 2.026-1.42c1.3-1.25 2.082-2.795 2.345-4.653q.12-.798.081-1.7a.1.1 0 0 0-.05-.082l-5.109-3.49q-.048-.027-.087 0l-5.122 3.502a.1.1 0 0 0-.044.082v.844a8 8 0 0 0 2.845 5.878.13.13 0 0 0 .12.025l1.319-.512c.025-.006.031-.02.037-.025v-.013l-.025-.025a6.68 6.68 0 0 1-2.976-5.534l3.82-2.608a.106.106 0 0 1 .132 0l3.783 2.583c.032.025.044.05.038.087l-.125 1.176a6.44 6.44 0 0 1-1.814 3.464c-.35.344-.825.682-1.426 1.001-1.482.894-3.226 1.513-4.971 1.407a3.8 3.8 0 0 1-1.839-.607 4.8 4.8 0 0 1-1.77-2.044l-.412-1.045a.094.094 0 0 1 .031-.106c.632-.55.488-1.501-.294-1.832a.08.08 0 0 1-.05-.063v-.075c0-1.22.25-2.389.725-3.502a.12.12 0 0 1 .063-.063.12.12 0 0 1 .131.02.2.2 0 0 0 .063.043h.019c1.088.256 2-.031 2.732-.876.613-.838.682-1.8.194-2.901a.04.04 0 0 1 0-.038h.007V4.74l.012-.006a8.62 8.62 0 0 1 6.479-1.264 8.6 8.6 0 0 1 1.92.607zM6.597 7.568q1.005-1.18.3-2.52l-.018-.02-.007-.006h-.025l-.018.013a9 9 0 0 0-2.314 2.583l-.22.375a.094.094 0 0 0 .05.137q1.314.357 2.252-.562m12.958.125c-.832.956-.238 2.27.994 2.395q.047.001.038-.044a9.4 9.4 0 0 0-.938-2.358.07.07 0 0 0-.094.013zM3.352 12.72l.118.825.002.007.005.006h.012c.05-.013.1-.063.125-.144a.8.8 0 0 0 .019-.3l-.006-.026a.8.8 0 0 0-.1-.28.3.3 0 0 0-.082-.082.12.12 0 0 0-.081-.019h-.012z" clip-rule="evenodd"/>
    <path fill="#fff" fill-rule="evenodd" d="M19.03 13.689a.95.95 0 0 1 .65 1.013.94.94 0 0 1-.713.8.956.956 0 0 1-1.182-.875.94.94 0 0 1 .525-.888.96.96 0 0 1 .72-.05m-.439 1.407c-.356-.137-.468-.375-.356-.732.238-.381.738-.437.976-.037.119.25.062.475-.15.656-.15.138-.313.175-.476.113z" clip-rule="evenodd"/>
    <path fill="#fff" d="m12.075 15.265.206-1.063a.03.03 0 0 1 .01-.022.03.03 0 0 1 .021-.01.04.04 0 0 1 .032.02l.15.206a.03.03 0 0 0 .037.012h.007a.03.03 0 0 0 .012-.01.03.03 0 0 0 .006-.015l.113-.588v-.025a.03.03 0 0 0-.013-.014.03.03 0 0 0-.018-.005H11.48v.007h-.013l-.006.012a.04.04 0 0 0-.006.025l.112.576a.04.04 0 0 0 .025.025.03.03 0 0 0 .037-.013l.145-.175.012-.012a.04.04 0 0 1 .02 0 .04.04 0 0 1 .018.012l.012.019.163 1.038.012.019a.03.03 0 0 0 .038.006h.006l.013-.025zm-.438-2.82V10.8c0-.438.388-.988.626-1.332a.05.05 0 0 1 .034-.017q.01 0 .02.005l.015.012c.28.4.625.888.625 1.376q-.02.844-.013 1.613c0 .038.025.063.063.075.39.14.73.392.976.726a.044.044 0 0 1-.044.043h-3.29a.05.05 0 0 1-.031-.023.05.05 0 0 1 0-.04c.263-.33.588-.562.963-.7.044-.018.063-.043.063-.087z"/>
</svg>
